;FLAVOR:UltiGCode
;TIME:2250
;MATERIAL:4694
;MATERIAL2:0
;NOZZLE_DIAMETER:0.4
;Generated with Cura_SteamEngine 3.6.0
M82 ;absolute extrusion mode

G92 E0
G10
;LAYER_COUNT:100
;LAYER:0
M107
G0 F3600 X74.428 Y105.212 Z0.3
;TYPE:SKIRT
G11
G1 F1800 X75.366 Y104.589 E0.13513
G1 X90.185 Y96.207 E2.17816
G1 X90.891 Y95.853 E2.27293
G1 X91.629 Y95.573 E2.36765
G1 X92.392 Y95.369 E2.46243
G1 X93.172 Y95.243 E2.55724
G1 X94.038 Y95.196 E2.66132
G1 X98.896 Y95.204 E3.24428
G1 X99.684 Y95.245 E3.33897
G1 X100.465 Y95.366 E3.4338
G1 X101.229 Y95.565 E3.52854
G1 X101.969 Y95.841 E3.62332
G1 X102.678 Y96.189 E3.71809
G1 X102.772 Y96.248 E3.73141
G1 X102.86 Y96.186 E3.74433
G1 X103.55 Y95.802 E3.83909
G1 X104.276 Y95.491 E3.93386
G1 X105.029 Y95.254 E4.02859
G1 X105.802 Y95.095 E4.1233
G1 X106.588 Y95.014 E4.21812
G1 X106.988 Y95.004 E4.26613
G1 X108.016 Y95.004 E4.38949
G1 X108.805 Y95.044 E4.48429
G1 X109.585 Y95.163 E4.57898
G1 X110.35 Y95.361 E4.6738
G1 X111.09 Y95.635 E4.76849
G1 X111.799 Y95.983 E4.86327
G1 X112.231 Y96.252 E4.92434
G1 X112.504 Y96.091 E4.96237
G1 X113.222 Y95.761 E5.05719
G1 X113.969 Y95.506 E5.15191
G1 X114.738 Y95.327 E5.24666
G1 X115.522 Y95.227 E5.3415
G1 X116.117 Y95.204 E5.41296
G1 X143.883 Y95.204 E8.74488
G1 X144.672 Y95.244 E8.83968
G1 X145.452 Y95.363 E8.93436
G1 X146.217 Y95.561 E9.02919
G1 X146.957 Y95.835 E9.12388
G1 X147.666 Y96.183 E9.21865
G1 X148.337 Y96.601 E9.31352
G1 X148.961 Y97.084 E9.40821
G1 X149.398 Y97.489 E9.47971
G1 X149.515 Y97.606 E9.49956
G1 X150.045 Y98.192 E9.59438
G1 X150.512 Y98.828 E9.68906
G1 X150.913 Y99.508 E9.78379
G1 X151.243 Y100.226 E9.87862
G1 X151.498 Y100.973 E9.97334
G1 X151.677 Y101.742 E10.06809
G1 X151.777 Y102.526 E10.16293
G1 X151.8 Y103.121 E10.23438
G1 X151.8 Y119.887 E12.2463
G1 X151.76 Y120.676 E12.3411
G1 X151.641 Y121.456 E12.43579
G1 X151.443 Y122.221 E12.53061
G1 X151.169 Y122.961 E12.6253
G1 X150.821 Y123.67 E12.72008
G1 X150.403 Y124.341 E12.81494
G1 X149.92 Y124.965 E12.90964
G1 X149.515 Y125.402 E12.98113
G1 X149.398 Y125.519 E13.00099
G1 X148.812 Y126.049 E13.0958
G1 X148.176 Y126.516 E13.19049
G1 X147.496 Y126.917 E13.28522
G1 X146.778 Y127.247 E13.38004
G1 X146.031 Y127.502 E13.47476
G1 X145.262 Y127.681 E13.56951
G1 X144.478 Y127.781 E13.66435
G1 X143.883 Y127.804 E13.73581
G1 X116.117 Y127.804 E17.06773
G1 X115.328 Y127.764 E17.16253
G1 X114.548 Y127.645 E17.25721
G1 X113.783 Y127.447 E17.35204
G1 X113.043 Y127.173 E17.44673
G1 X112.334 Y126.825 E17.5415
G1 X112.229 Y126.76 E17.55632
G1 X112.14 Y126.822 E17.56934
G1 X111.45 Y127.206 E17.6641
G1 X110.724 Y127.517 E17.75887
G1 X109.971 Y127.754 E17.8536
G1 X109.198 Y127.913 E17.94831
G1 X108.412 Y127.994 E18.04313
G1 X108.004 Y128.004 E18.0921
G1 X106.976 Y128.003 E18.21546
G1 X106.188 Y127.962 E18.31015
G1 X105.407 Y127.842 E18.40497
G1 X104.643 Y127.643 E18.49971
G1 X103.903 Y127.369 E18.5944
G1 X103.194 Y127.02 E18.68923
G1 X102.77 Y126.755 E18.74923
G1 X102.496 Y126.917 E18.78742
G1 X101.778 Y127.247 E18.88225
G1 X101.031 Y127.502 E18.97697
G1 X100.262 Y127.681 E19.07172
G1 X99.478 Y127.781 E19.16656
G1 X98.851 Y127.804 E19.24185
G1 X93.945 Y127.784 E19.83057
G1 X93.157 Y127.741 E19.92527
G1 X92.377 Y127.618 E20.02003
G1 X91.613 Y127.417 E20.11483
G1 X90.873 Y127.14 E20.20965
G1 X90.132 Y126.77 E20.30904
G1 X75.361 Y118.4 E22.34635
G1 X74.694 Y117.977 E22.44113
G1 X74.074 Y117.488 E22.53588
G1 X73.506 Y116.939 E22.63068
G1 X72.997 Y116.335 E22.72546
G1 X72.552 Y115.683 E22.82019
G1 X72.174 Y114.99 E22.91492
G1 X71.869 Y114.261 E23.00974
G1 X71.639 Y113.506 E23.10445
G1 X71.486 Y112.731 E23.19925
G1 X71.406 Y111.614 E23.33363
G1 X71.406 Y111.378 E23.36195
G1 X71.446 Y110.589 E23.45675
G1 X71.565 Y109.809 E23.55144
G1 X71.763 Y109.044 E23.64626
G1 X72.037 Y108.304 E23.74095
G1 X72.385 Y107.595 E23.83573
G1 X72.803 Y106.924 E23.9306
G1 X73.286 Y106.3 E24.02529
G1 X73.829 Y105.727 E24.12002
G1 X74.428 Y105.212 E24.21481
G0 F3600 X74.817 Y105.42
G1 F1800 X75.563 Y104.937 E24.32146
G1 X90.382 Y96.555 E26.36449
G1 X91.07 Y96.212 E26.45674
G1 X91.79 Y95.942 E26.54902
G1 X92.535 Y95.748 E26.6414
G1 X93.295 Y95.632 E26.73366
G1 X94.037 Y95.596 E26.8228
G1 X98.895 Y95.604 E27.40576
G1 X99.663 Y95.645 E27.49805
G1 X100.423 Y95.766 E27.5904
G1 X101.166 Y95.965 E27.6827
G1 X101.884 Y96.24 E27.77497
G1 X102.57 Y96.588 E27.86727
G1 X102.782 Y96.725 E27.89756
G1 X103.243 Y96.422 E27.96376
G1 X103.925 Y96.068 E28.05597
G1 X104.641 Y95.786 E28.14831
G1 X105.382 Y95.58 E28.24061
G1 X106.141 Y95.453 E28.33295
G1 X106.988 Y95.404 E28.43476
G1 X108.016 Y95.404 E28.55812
G1 X108.784 Y95.444 E28.65041
G1 X109.544 Y95.563 E28.74272
G1 X110.287 Y95.761 E28.83499
G1 X111.006 Y96.035 E28.92732
G1 X111.692 Y96.382 E29.01958
G1 X112.22 Y96.722 E29.09494
G1 X112.743 Y96.418 E29.16753
G1 X113.445 Y96.103 E29.25986
G1 X114.176 Y95.863 E29.35219
G1 X114.927 Y95.7 E29.44441
G1 X115.692 Y95.616 E29.53676
G1 X116.117 Y95.604 E29.58778
G1 X143.883 Y95.604 E32.9197
G1 X144.651 Y95.644 E33.01198
G1 X145.411 Y95.763 E33.10429
G1 X146.154 Y95.961 E33.19656
G1 X146.873 Y96.235 E33.2889
G1 X147.559 Y96.582 E33.38115
G1 X148.206 Y96.998 E33.47345
G1 X148.806 Y97.479 E33.56573
G1 X149.116 Y97.771 E33.61684
G1 X149.233 Y97.888 E33.63669
G1 X149.747 Y98.46 E33.72897
G1 X150.2 Y99.082 E33.82131
G1 X150.586 Y99.747 E33.91358
G1 X150.901 Y100.449 E34.00591
G1 X151.141 Y101.18 E34.09824
G1 X151.304 Y101.931 E34.19046
G1 X151.388 Y102.696 E34.28281
G1 X151.4 Y103.121 E34.33383
G1 X151.4 Y119.887 E36.34575
G1 X151.36 Y120.655 E36.43804
G1 X151.241 Y121.415 E36.53035
G1 X151.043 Y122.158 E36.62262
G1 X150.769 Y122.877 E36.71495
G1 X150.422 Y123.563 E36.8072
G1 X150.006 Y124.21 E36.89951
G1 X149.525 Y124.81 E36.99179
G1 X149.233 Y125.12 E37.04289
G1 X149.116 Y125.237 E37.06275
G1 X148.544 Y125.751 E37.15503
G1 X147.922 Y126.204 E37.24736
G1 X147.257 Y126.59 E37.33963
G1 X146.555 Y126.905 E37.43197
G1 X145.824 Y127.145 E37.52429
G1 X145.073 Y127.308 E37.61651
G1 X144.308 Y127.392 E37.70886
G1 X143.883 Y127.404 E37.75988
G1 X116.117 Y127.404 E41.0918
G1 X115.349 Y127.364 E41.18409
G1 X114.589 Y127.245 E41.2764
G1 X113.846 Y127.047 E41.36867
G1 X113.127 Y126.773 E41.461
G1 X112.441 Y126.426 E41.55326
G1 X112.218 Y126.283 E41.58505
G1 X111.757 Y126.586 E41.65124
G1 X111.075 Y126.94 E41.74345
G1 X110.359 Y127.222 E41.8358
G1 X109.618 Y127.428 E41.92809
G1 X108.859 Y127.555 E42.02044
G1 X108.005 Y127.604 E42.12308
G1 X106.977 Y127.603 E42.24644
G1 X106.209 Y127.562 E42.33873
G1 X105.449 Y127.442 E42.43106
G1 X104.706 Y127.244 E42.52334
G1 X103.987 Y126.969 E42.61571
G1 X103.301 Y126.622 E42.70796
G1 X102.781 Y126.286 E42.78226
G1 X102.257 Y126.59 E42.85495
G1 X101.555 Y126.905 E42.94729
G1 X100.824 Y127.145 E43.03961
G1 X100.073 Y127.308 E43.13183
G1 X99.308 Y127.392 E43.22418
G1 X98.853 Y127.404 E43.2788
G1 X93.947 Y127.384 E43.86753
G1 X93.179 Y127.341 E43.95983
G1 X92.42 Y127.218 E44.0521
G1 X91.677 Y127.018 E44.14443
G1 X90.959 Y126.741 E44.23678
G1 X90.329 Y126.422 E44.32152
G1 X75.558 Y118.052 E46.35883
G1 X74.909 Y117.639 E46.45115
G1 X74.307 Y117.16 E46.54346
G1 X73.758 Y116.622 E46.6357
G1 X73.267 Y116.029 E46.72809
G1 X72.841 Y115.389 E46.82035
G1 X72.484 Y114.708 E46.91262
G1 X72.199 Y113.993 E47.00498
G1 X71.99 Y113.253 E47.09726
G1 X71.859 Y112.495 E47.18956
G1 X71.806 Y111.614 E47.29547
G1 X71.806 Y111.378 E47.32379
G1 X71.846 Y110.61 E47.41608
G1 X71.965 Y109.85 E47.50839
G1 X72.163 Y109.107 E47.60066
G1 X72.437 Y108.388 E47.69299
G1 X72.784 Y107.702 E47.78525
G1 X73.2 Y107.055 E47.87755
G1 X73.681 Y106.455 E47.96983
G1 X74.222 Y105.908 E48.06215
G1 X74.817 Y105.42 E48.1545
G0 F3600 X75.204 Y105.635
G1 F1800 X75.76 Y105.285 E48.23333
G1 X90.579 Y96.903 E50.27637
G1 X91.249 Y96.57 E50.36615
G1 X91.95 Y96.311 E50.45583
G1 X92.675 Y96.127 E50.54559
G1 X93.416 Y96.023 E50.63538
G1 X94.037 Y95.996 E50.70997
G1 X98.895 Y96.004 E51.29293
G1 X99.641 Y96.045 E51.38259
G1 X100.38 Y96.166 E51.47245
G1 X101.101 Y96.365 E51.5622
G1 X101.797 Y96.639 E51.65196
G1 X102.459 Y96.987 E51.74171
G1 X102.794 Y97.211 E51.79007
G1 X102.988 Y97.06 E51.81957
G1 X103.623 Y96.666 E51.90924
G1 X104.298 Y96.342 E51.99909
G1 X105.003 Y96.091 E52.08889
G1 X105.73 Y95.918 E52.17857
G1 X106.472 Y95.823 E52.26834
G1 X106.988 Y95.804 E52.3303
G1 X108.016 Y95.804 E52.45366
G1 X108.763 Y95.844 E52.54343
G1 X109.501 Y95.963 E52.63313
G1 X110.223 Y96.161 E52.72297
G1 X110.919 Y96.434 E52.81269
G1 X111.582 Y96.781 E52.90248
G1 X112.205 Y97.196 E52.99231
G1 X112.212 Y97.202 E52.99342
G1 X112.33 Y97.117 E53.01087
G1 X112.98 Y96.746 E53.10068
G1 X113.666 Y96.447 E53.19048
G1 X114.38 Y96.223 E53.28028
G1 X115.113 Y96.076 E53.36999
G1 X116.117 Y96.004 E53.49078
G1 X143.883 Y96.004 E56.8227
G1 X144.63 Y96.044 E56.91247
G1 X145.368 Y96.163 E57.00217
G1 X146.09 Y96.361 E57.09201
G1 X146.786 Y96.634 E57.18172
G1 X147.449 Y96.981 E57.27152
G1 X148.072 Y97.396 E57.36135
G1 X148.833 Y98.054 E57.48207
G1 X148.95 Y98.171 E57.50193
G1 X149.45 Y98.728 E57.59175
G1 X149.887 Y99.334 E57.6814
G1 X150.258 Y99.984 E57.77122
G1 X150.557 Y100.67 E57.86102
G1 X150.781 Y101.384 E57.95081
G1 X150.928 Y102.117 E58.04052
G1 X151 Y103.121 E58.16131
G1 X151 Y119.887 E60.17323
G1 X150.96 Y120.634 E60.263
G1 X150.841 Y121.372 E60.35271
G1 X150.643 Y122.094 E60.44254
G1 X150.37 Y122.79 E60.53226
G1 X150.023 Y123.453 E60.62206
G1 X149.608 Y124.076 E60.71189
G1 X148.95 Y124.837 E60.83261
G1 X148.833 Y124.954 E60.85246
G1 X148.276 Y125.454 E60.94228
G1 X147.67 Y125.891 E61.03194
G1 X147.02 Y126.262 E61.12175
G1 X146.334 Y126.561 E61.21155
G1 X145.62 Y126.785 E61.30135
G1 X144.887 Y126.932 E61.39106
G1 X143.883 Y127.004 E61.51185
G1 X116.117 Y127.004 E64.84377
G1 X115.37 Y126.964 E64.93354
G1 X114.632 Y126.845 E65.02324
G1 X113.91 Y126.647 E65.11308
G1 X113.214 Y126.374 E65.2028
G1 X112.551 Y126.027 E65.29259
G1 X112.206 Y125.797 E65.34235
G1 X112.012 Y125.948 E65.37185
G1 X111.377 Y126.342 E65.46153
G1 X110.702 Y126.666 E65.55138
G1 X109.997 Y126.917 E65.64118
G1 X109.27 Y127.09 E65.73085
G1 X108.528 Y127.185 E65.82062
G1 X108.005 Y127.204 E65.88342
G1 X106.977 Y127.203 E66.00678
G1 X106.23 Y127.162 E66.09656
G1 X105.492 Y127.042 E66.18628
G1 X104.771 Y126.844 E66.276
G1 X104.075 Y126.57 E66.36576
G1 X103.412 Y126.223 E66.45556
G1 X102.79 Y125.807 E66.54535
G1 X102.788 Y125.806 E66.54562
G1 X102.67 Y125.891 E66.56307
G1 X102.02 Y126.262 E66.65289
G1 X101.334 Y126.561 E66.74268
G1 X100.62 Y126.785 E66.83248
G1 X99.887 Y126.932 E66.92219
G1 X98.854 Y127.004 E67.04645
G1 X93.948 Y126.984 E67.63518
G1 X93.202 Y126.941 E67.72485
G1 X92.464 Y126.818 E67.81463
G1 X91.743 Y126.618 E67.90442
G1 X91.048 Y126.342 E67.99415
G1 X90.526 Y126.074 E68.06457
G1 X75.755 Y117.704 E70.10188
G1 X75.125 Y117.301 E70.19162
G1 X74.541 Y116.833 E70.28143
G1 X74.011 Y116.306 E70.37112
G1 X73.54 Y115.724 E70.46096
G1 X73.134 Y115.096 E70.5507
G1 X72.797 Y114.428 E70.64048
G1 X72.533 Y113.728 E70.73026
G1 X72.345 Y113.004 E70.82002
G1 X72.236 Y112.264 E70.90978
G1 X72.206 Y111.614 E70.98786
G1 X72.206 Y111.378 E71.01618
G1 X72.246 Y110.631 E71.10595
G1 X72.365 Y109.893 E71.19565
G1 X72.563 Y109.171 E71.28549
G1 X72.836 Y108.475 E71.37521
G1 X73.183 Y107.812 E71.46501
G1 X73.598 Y107.189 E71.55484
G1 X74.077 Y106.615 E71.64455
G1 X74.614 Y106.094 E71.73433
G1 X75.204 Y105.635 E71.82403
G0 F3600 X75.005 Y106.287
G1 F1800 X75.59 Y105.857 E71.91116
G1 X75.957 Y105.633 E71.96275
G1 X90.776 Y97.251 E74.00579
G1 X91.427 Y96.929 E74.09294
G1 X92.109 Y96.68 E74.18007
G1 X92.815 Y96.508 E74.26727
G1 X93.535 Y96.414 E74.3544
G1 X94.036 Y96.396 E74.41456
G1 X98.894 Y96.404 E74.99752
G1 X99.619 Y96.445 E75.08466
G1 X100.335 Y96.566 E75.1718
G1 X101.034 Y96.764 E75.25898
G1 X101.707 Y97.039 E75.34622
G1 X102.345 Y97.385 E75.43331
G1 X102.802 Y97.702 E75.50005
G1 X103.373 Y97.282 E75.58511
G1 X104.002 Y96.918 E75.67232
G1 X104.667 Y96.626 E75.75947
G1 X105.36 Y96.408 E75.84665
G1 X106.073 Y96.268 E75.93385
G1 X106.988 Y96.204 E76.04391
G1 X108.016 Y96.204 E76.16727
G1 X108.741 Y96.244 E76.25441
G1 X109.458 Y96.363 E76.34162
G1 X110.157 Y96.561 E76.4288
G1 X110.83 Y96.834 E76.51596
G1 X111.469 Y97.179 E76.6031
G1 X112.066 Y97.593 E76.69028
G1 X112.196 Y97.706 E76.71095
G1 X112.582 Y97.43 E76.76789
G1 X113.216 Y97.076 E76.85503
G1 X113.885 Y96.793 E76.94219
G1 X114.581 Y96.585 E77.02936
G1 X115.296 Y96.455 E77.11657
G1 X116.117 Y96.404 E77.21528
G1 X143.883 Y96.404 E80.5472
G1 X144.608 Y96.444 E80.63433
G1 X145.325 Y96.563 E80.72155
G1 X146.024 Y96.761 E80.80873
G1 X146.697 Y97.034 E80.89588
G1 X147.336 Y97.379 E80.98302
G1 X147.933 Y97.793 E81.0702
G1 X148.55 Y98.337 E81.16891
G1 X148.667 Y98.454 E81.18877
G1 X149.151 Y98.995 E81.27588
G1 X149.574 Y99.586 E81.36309
G1 X149.928 Y100.22 E81.45023
G1 X150.211 Y100.889 E81.53739
G1 X150.419 Y101.585 E81.62456
G1 X150.549 Y102.3 E81.71177
G1 X150.6 Y103.121 E81.81048
G1 X150.6 Y119.887 E83.8224
G1 X150.56 Y120.612 E83.90953
G1 X150.441 Y121.329 E83.99675
G1 X150.243 Y122.028 E84.08393
G1 X149.97 Y122.701 E84.17108
G1 X149.625 Y123.34 E84.25822
G1 X149.211 Y123.937 E84.3454
G1 X148.667 Y124.554 E84.44411
G1 X148.55 Y124.671 E84.46397
G1 X148.009 Y125.155 E84.55108
G1 X147.418 Y125.578 E84.63829
G1 X146.784 Y125.932 E84.72543
G1 X146.115 Y126.215 E84.81259
G1 X145.419 Y126.423 E84.89976
G1 X144.704 Y126.553 E84.98697
G1 X143.883 Y126.604 E85.08568
G1 X116.117 Y126.604 E88.4176
G1 X115.392 Y126.564 E88.50473
G1 X114.675 Y126.445 E88.59195
G1 X113.976 Y126.247 E88.67913
G1 X113.303 Y125.974 E88.76628
G1 X112.664 Y125.629 E88.85342
G1 X112.198 Y125.306 E88.92146
G1 X111.627 Y125.726 E89.00652
G1 X110.998 Y126.09 E89.09373
G1 X110.333 Y126.382 E89.18088
G1 X109.64 Y126.6 E89.26806
G1 X108.927 Y126.74 E89.35526
G1 X108.006 Y126.804 E89.46604
G1 X106.978 Y126.803 E89.5894
G1 X106.252 Y126.762 E89.67666
G1 X105.536 Y126.642 E89.76378
G1 X104.837 Y126.444 E89.85096
G1 X104.164 Y126.17 E89.93816
G1 X103.526 Y125.824 E90.02525
G1 X102.929 Y125.41 E90.11243
G1 X102.804 Y125.301 E90.13233
G1 X102.418 Y125.578 E90.18935
G1 X101.784 Y125.932 E90.27648
G1 X101.115 Y126.215 E90.36365
G1 X100.419 Y126.423 E90.45082
G1 X99.704 Y126.553 E90.53803
G1 X98.856 Y126.604 E90.63997
G1 X93.95 Y126.584 E91.22869
G1 X93.225 Y126.541 E91.31585
G1 X92.509 Y126.419 E91.40301
G1 X91.811 Y126.218 E91.49017
G1 X91.139 Y125.943 E91.5773
G1 X90.723 Y125.726 E91.6336
G1 X75.952 Y117.356 E93.67092
G1 X75.341 Y116.964 E93.75803
G1 X74.776 Y116.507 E93.84523
G1 X74.266 Y115.99 E93.93238
G1 X73.815 Y115.421 E94.01951
G1 X73.429 Y114.805 E94.10674
G1 X73.113 Y114.151 E94.1939
G1 X72.871 Y113.466 E94.28108
G1 X72.706 Y112.759 E94.3682
G1 X72.62 Y112.038 E94.45533
G1 X72.606 Y111.614 E94.50624
G1 X72.606 Y111.378 E94.53456
G1 X72.646 Y110.653 E94.62169
G1 X72.765 Y109.936 E94.70891
G1 X72.963 Y109.237 E94.79609
G1 X73.236 Y108.564 E94.88324
G1 X73.581 Y107.925 E94.97038
G1 X73.995 Y107.328 E95.05756
G1 X74.471 Y106.78 E95.14467
G1 X75.005 Y106.287 E95.23188
G0 F3600 X75.395 Y106.487
G1 F1800 X76.154 Y105.981 E95.34135
G1 X90.973 Y97.599 E97.38438
G1 X91.604 Y97.288 E97.4688
G1 X92.267 Y97.051 E97.55329
G1 X92.952 Y96.89 E97.63773
G1 X93.651 Y96.807 E97.7222
G1 X94.035 Y96.796 E97.7683
G1 X98.893 Y96.804 E98.35126
G1 X99.596 Y96.845 E98.43576
G1 X100.29 Y96.966 E98.5203
G1 X100.965 Y97.164 E98.60471
G1 X101.614 Y97.438 E98.68925
G1 X102.227 Y97.783 E98.77366
G1 X102.797 Y98.196 E98.85812
G1 X102.825 Y98.221 E98.86263
G1 X103.178 Y97.913 E98.91885
G1 X103.757 Y97.512 E99.00336
G1 X104.378 Y97.18 E99.08786
G1 X105.032 Y96.92 E99.17232
G1 X105.712 Y96.737 E99.25682
G1 X106.408 Y96.631 E99.3413
G1 X106.988 Y96.604 E99.41098
G1 X108.016 Y96.604 E99.53434
G1 X108.719 Y96.644 E99.61884
G1 X109.413 Y96.763 E99.70333
G1 X110.088 Y96.961 E99.78774
G1 X110.737 Y97.233 E99.87219
G1 X111.351 Y97.578 E99.9567
G1 X111.922 Y97.989 E100.04113
G1 X112.178 Y98.222 E100.08266
G1 X112.258 Y98.151 E100.0955
G1 X112.833 Y97.745 E100.17997
G1 X113.451 Y97.407 E100.26449
G1 X114.102 Y97.14 E100.34893
G1 X114.78 Y96.95 E100.43342
